X:275
T:no name
R:jig
Z:id:hn-jig-275
M:6/8
K:Dmix
DFA dcA|AGE AGE|DFA dcA|AGE D2E|
~D3 DEG|AdB c2A|dfd AGE|AGE D3:|
|:DFA fed|dcA dcA|dAF DdB|~c3 cAG|
DEF EFG|AdB cAG|dfd AGE|AGE D3:|
